report_00007_2020-12-11T15:55:29.892Z/server-response-time/comparison/line/4_vs_5.svg

<svg width="640" height="500" xmlns="http://www.w3.org/2000/svg" xmlns:xlink="http://www.w3.org/1999/xlink"><path fill="#fff" d="M0 0h640v500H0z"/><defs><path id="d" stroke-width=".222" stroke="currentColor" d="M-1-1h2v2h-2z"/><path id="b" stroke-width=".222" stroke="currentColor" d="M0-1.33l-1.33 2h2.66z"/><path id="f" stroke-width=".222" stroke="currentColor" d="M0 1.33L1.265.411.782-1.067l-1.564-.009-.483 1.487z"/><use xlink:href="#b" id="c" stroke="currentColor" transform="rotate(180)"/><use xlink:href="#d" id="e" stroke="currentColor" transform="rotate(45)"/><circle id="a" stroke-width=".222" stroke="currentColor" cx="0" cy="0" r="1"/></defs><g fill="none" color="#000" stroke="currentColor"><path stroke="#000" d="M53.9 404.6h9m552.1 0h-9"/><text transform="translate(45.6 408.5)" stroke="none" fill="#000" font-family="Arial" font-size="12" text-anchor="end"><tspan>1.4</tspan></text></g><g fill="none" color="#000" stroke="currentColor"><path stroke="#000" d="M53.9 352h9m552.1 0h-9"/><text transform="translate(45.6 355.9)" stroke="none" fill="#000" font-family="Arial" font-size="12" text-anchor="end"><tspan>1.6</tspan></text></g><g fill="none" color="#000" stroke="currentColor"><path stroke="#000" d="M53.9 299.4h9m552.1 0h-9"/><text transform="translate(45.6 303.3)" stroke="none" fill="#000" font-family="Arial" font-size="12" text-anchor="end"><tspan>1.8</tspan></text></g><g fill="none" color="#000" stroke="currentColor"><path stroke="#000" d="M53.9 246.8h9m552.1 0h-9"/><text transform="translate(45.6 250.7)" stroke="none" fill="#000" font-family="Arial" font-size="12" text-anchor="end"><tspan>2</tspan></text></g><g fill="none" color="#000" stroke="currentColor"><path stroke="#000" d="M53.9 194.2h9m552.1 0h-9"/><text transform="translate(45.6 198.1)" stroke="none" fill="#000" font-family="Arial" font-size="12" text-anchor="end"><tspan>2.2</tspan></text></g><g fill="none" color="#000" stroke="currentColor"><path stroke="#000" d="M53.9 141.6h9m552.1 0h-9"/><text transform="translate(45.6 145.5)" stroke="none" fill="#000" font-family="Arial" font-size="12" text-anchor="end"><tspan>2.4</tspan></text></g><g fill="none" color="#000" stroke="currentColor"><path stroke="#000" d="M53.9 88.9h9m552.1 0h-9"/><text transform="translate(45.6 92.8)" stroke="none" fill="#000" font-family="Arial" font-size="12" text-anchor="end"><tspan>2.6</tspan></text></g><g fill="none" color="#000" stroke="currentColor"><path stroke="#000" d="M53.9 36.3h9m552.1 0h-9"/><text transform="translate(45.6 40.2)" stroke="none" fill="#000" font-family="Arial" font-size="12" text-anchor="end"><tspan>2.8</tspan></text></g><g fill="none" color="#000" stroke="currentColor"><path stroke="#000" d="M53.9 446v-9m0-418.9v9"/><text transform="translate(53.9 467.9)" stroke="none" fill="#000" font-family="Arial" font-size="12" text-anchor="middle"><tspan>0</tspan></text></g><g fill="none" color="#000" stroke="currentColor"><path stroke="#000" d="M110.6 446v-9m0-418.9v9"/><text transform="translate(110.6 467.9)" stroke="none" fill="#000" font-family="Arial" font-size="12" text-anchor="middle"><tspan>10</tspan></text></g><g fill="none" color="#000" stroke="currentColor"><path stroke="#000" d="M167.3 446v-9m0-418.9v9"/><text transform="translate(167.3 467.9)" stroke="none" fill="#000" font-family="Arial" font-size="12" text-anchor="middle"><tspan>20</tspan></text></g><g fill="none" color="#000" stroke="currentColor"><path stroke="#000" d="M223.9 446v-9m0-418.9v9"/><text transform="translate(223.9 467.9)" stroke="none" fill="#000" font-family="Arial" font-size="12" text-anchor="middle"><tspan>30</tspan></text></g><g fill="none" color="#000" stroke="currentColor"><path stroke="#000" d="M280.6 446v-9m0-418.9v9"/><text transform="translate(280.6 467.9)" stroke="none" fill="#000" font-family="Arial" font-size="12" text-anchor="middle"><tspan>40</tspan></text></g><g fill="none" color="#000" stroke="currentColor"><path stroke="#000" d="M337.3 446v-9m0-418.9v9"/><text transform="translate(337.3 467.9)" stroke="none" fill="#000" font-family="Arial" font-size="12" text-anchor="middle"><tspan>50</tspan></text></g><g fill="none" color="#000" stroke="currentColor"><path stroke="#000" d="M394 446v-9m0-418.9v9"/><text transform="translate(394 467.9)" stroke="none" fill="#000" font-family="Arial" font-size="12" text-anchor="middle"><tspan>60</tspan></text></g><g fill="none" color="#000" stroke="currentColor"><path stroke="#000" d="M450.6 446v-9m0-418.9v9"/><text transform="translate(450.6 467.9)" stroke="none" fill="#000" font-family="Arial" font-size="12" text-anchor="middle"><tspan>70</tspan></text></g><g fill="none" color="#000" stroke="currentColor"><path stroke="#000" d="M507.3 446v-9m0-418.9v9"/><text transform="translate(507.3 467.9)" stroke="none" fill="#000" font-family="Arial" font-size="12" text-anchor="middle"><tspan>80</tspan></text></g><g fill="none" color="#000" stroke="currentColor"><path stroke="#000" d="M564 446v-9m0-418.9v9"/><text transform="translate(564 467.9)" stroke="none" fill="#000" font-family="Arial" font-size="12" text-anchor="middle"><tspan>90</tspan></text></g><path stroke="#000" d="M53.9 18.1V446H615V18.1H53.9z" fill="none" color="#000"/><text transform="translate(275.6 485.9)" stroke="none" fill="#000" font-family="Arial" font-size="12" text-anchor="end" color="#000"><tspan>pages+cached+noadtech</tspan></text><path stroke="#9400D3" d="M283.9 482h42.2M53.9 266.2l5.7 63.2 5.6 6 5.7-131.2 5.7 205.4 5.6-104.2 5.7.8 5.7 92.1 5.6-54.7 5.7 58.7 5.7-5.8 5.6-81.3 5.7 19.4 5.7 91.6 5.6-14.2 5.7-84.7 5.7 83.1 5.7-7.9 5.6-74.2 5.7 50.3 5.7-67.9 5.6-42.1 5.7 155.5 5.7-85 5.6 42.1 5.7-135.7 5.7 164.1 5.6-101.3 5.7 95.5 5.7-47.6 5.6-140.7 5.7 213.9 5.7-159.7 5.6 155.7 5.7-104.7 5.7-100.5 5.6 171.3 5.7-44.5 5.7-86.8 5.6 137.3 5.7-16 5.7-58.7 5.6 100.8 5.7-100 5.7 83.9 5.6 14 5.7-81.3 5.7-147.1 5.6 213.4 5.7 11.8 5.7-163.6 5.7 154.7 5.6-56.3 5.7-64.2 5.7 129.9 5.6-16.3 5.7-43.1L377 387l5.6-115.8 5.7 136.3 5.7-108.9 5.6 100 5.7 2.6L411 282l5.6 125.8 5.7 11.6 5.7-115.3 5.6 63.4 5.7-50.7 5.7-40.3 5.6 61.3 5.7 36 5.7-182 5.6 128.1 5.7-24.5 5.7 12.9 5.6-78.6 5.7 102.3 5.7 86 5.6 16.1 5.7-129.2 5.7 93.7 5.6-4.2 5.7-136.6 5.7 92.4 5.7 37.6 5.6-64.7 5.7 95.5 5.7-34 5.6-54.4 5.7 20.2 5.7 66.6 5.6-98.7 5.7 97.9 5.7 14.2 5.6-221.5 5.7 182.3 5.7-22.1 5.6-48.4 5.7-157.8" fill="none" color="#000"/><text transform="translate(525.3 485.9)" stroke="none" fill="#000" font-family="Arial" font-size="12" text-anchor="end" color="#000"><tspan>pages+cached+noexternal</tspan></text><path stroke="#009E73" d="M533.6 482h42.2M53.9 200l5.7 211.5 5.6-204.4 5.7 230.7 5.7-27.9 5.6-87.9 5.7-29.7 5.7-6.1 5.6 103.2 5.7-152.1 5.7 126 5.6 65 5.7-123.9 5.7 103.9 5.6-60 5.7-40.2 5.7 94.4 5.7-210.2 5.6 56.1 5.7 52.3 5.7-151 5.6 172.6 5.7-69.2 5.7-34.7 5.6 194.9 5.7-86.3 5.7 12.4 5.6-119.2 5.7 125 5.7-50.5 5.6-101.1 5.7 198.1 5.7-172.8 5.6 124.2 5.7-74.2 5.7 119.4 5.6-83.1 5.7 39.4 5.7-128.1 5.6 101.3 5.7-58.7 5.7 95.3 5.6-134.5 5.7 76.9 5.7 125.2 5.6-197.8 5.7 4.4 5.7 85 5.6-287.3 5.7 308.3 5.7 54.2L343 252l5.6 147.9 5.7 14.5 5.7-84.8 5.6 57.9 5.7-61 5.7-33.9 5.6 53.1 5.7-93.9 5.7 11.8 5.6 63.4 5.7 24.5 5.7-63.7 5.6 24 5.7 93.6 5.7-15.2 5.6-251.5 5.7 172.5 5.7 60.3 5.6-17.4 5.7-98.4L462 422l5.6-24.5 5.7-110.5 5.7-79.2 5.6 94.8 5.7-135 5.7 238.6 5.6-203.9 5.7-20 5.7 211.8 5.6-107.1 5.7-52.1 5.7-64.7 5.7 51.6 5.6-147.9 5.7 173.9 5.7-46.3 5.6 126 5.7 78.7 5.7-146.5 5.6 35 5.7 66.5 5.7 60 5.6-73.7 5.7-13.4 5.7-186.8 5.6 261 5.7-14.7" fill="none" color="#000"/><g fill="none" color="#000" stroke="currentColor"><path stroke="#000" d="M53.9 18.1V446H615V18.1H53.9z"/></g></svg>

<?xml version="1.0" encoding="utf-8"  standalone="no"?>
<svg 
 width="640" height="500"
 viewBox="0 0 640 500"
 xmlns="http://www.w3.org/2000/svg"
 xmlns:xlink="http://www.w3.org/1999/xlink"
>

<title>Gnuplot</title>
<desc>Produced by GNUPLOT 5.4 patchlevel 0 </desc>

<g id="gnuplot_canvas">

<rect x="0" y="0" width="640" height="500" fill="#ffffff"/>
<defs>

	<circle id='gpDot' r='0.5' stroke-width='0.5' stroke='currentColor'/>
	<path id='gpPt0' stroke-width='0.222' stroke='currentColor' d='M-1,0 h2 M0,-1 v2'/>
	<path id='gpPt1' stroke-width='0.222' stroke='currentColor' d='M-1,-1 L1,1 M1,-1 L-1,1'/>
	<path id='gpPt2' stroke-width='0.222' stroke='currentColor' d='M-1,0 L1,0 M0,-1 L0,1 M-1,-1 L1,1 M-1,1 L1,-1'/>
	<rect id='gpPt3' stroke-width='0.222' stroke='currentColor' x='-1' y='-1' width='2' height='2'/>
	<rect id='gpPt4' stroke-width='0.222' stroke='currentColor' fill='currentColor' x='-1' y='-1' width='2' height='2'/>
	<circle id='gpPt5' stroke-width='0.222' stroke='currentColor' cx='0' cy='0' r='1'/>
	<use xlink:href='#gpPt5' id='gpPt6' fill='currentColor' stroke='none'/>
	<path id='gpPt7' stroke-width='0.222' stroke='currentColor' d='M0,-1.33 L-1.33,0.67 L1.33,0.67 z'/>
	<use xlink:href='#gpPt7' id='gpPt8' fill='currentColor' stroke='none'/>
	<use xlink:href='#gpPt7' id='gpPt9' stroke='currentColor' transform='rotate(180)'/>
	<use xlink:href='#gpPt9' id='gpPt10' fill='currentColor' stroke='none'/>
	<use xlink:href='#gpPt3' id='gpPt11' stroke='currentColor' transform='rotate(45)'/>
	<use xlink:href='#gpPt11' id='gpPt12' fill='currentColor' stroke='none'/>
	<path id='gpPt13' stroke-width='0.222' stroke='currentColor' d='M0,1.330 L1.265,0.411 L0.782,-1.067 L-0.782,-1.076 L-1.265,0.411 z'/>
	<use xlink:href='#gpPt13' id='gpPt14' fill='currentColor' stroke='none'/>
	<filter id='textbox' filterUnits='objectBoundingBox' x='0' y='0' height='1' width='1'>
	  <feFlood flood-color='#FFFFFF' flood-opacity='1' result='bgnd'/>
	  <feComposite in='SourceGraphic' in2='bgnd' operator='atop'/>
	</filter>
	<filter id='greybox' filterUnits='objectBoundingBox' x='0' y='0' height='1' width='1'>
	  <feFlood flood-color='lightgrey' flood-opacity='1' result='grey'/>
	  <feComposite in='SourceGraphic' in2='grey' operator='atop'/>
	</filter>
</defs>
<g fill="none" color="#FFFFFF" stroke="black" stroke-width="1.00" stroke-linecap="butt" stroke-linejoin="miter">
</g>
<g fill="none" color="black" stroke="currentColor" stroke-width="1.00" stroke-linecap="butt" stroke-linejoin="miter">
	<path stroke='black'  d='M53.9,404.6 L62.9,404.6 M615.0,404.6 L606.0,404.6  '/>	<g transform="translate(45.6,408.5)" stroke="none" fill="black" font-family="Arial" font-size="12.00"  text-anchor="end">
		<text><tspan font-family="Arial" > 1.4</tspan></text>
	</g>
</g>
<g fill="none" color="black" stroke="currentColor" stroke-width="1.00" stroke-linecap="butt" stroke-linejoin="miter">
	<path stroke='black'  d='M53.9,352.0 L62.9,352.0 M615.0,352.0 L606.0,352.0  '/>	<g transform="translate(45.6,355.9)" stroke="none" fill="black" font-family="Arial" font-size="12.00"  text-anchor="end">
		<text><tspan font-family="Arial" > 1.6</tspan></text>
	</g>
</g>
<g fill="none" color="black" stroke="currentColor" stroke-width="1.00" stroke-linecap="butt" stroke-linejoin="miter">
	<path stroke='black'  d='M53.9,299.4 L62.9,299.4 M615.0,299.4 L606.0,299.4  '/>	<g transform="translate(45.6,303.3)" stroke="none" fill="black" font-family="Arial" font-size="12.00"  text-anchor="end">
		<text><tspan font-family="Arial" > 1.8</tspan></text>
	</g>
</g>
<g fill="none" color="black" stroke="currentColor" stroke-width="1.00" stroke-linecap="butt" stroke-linejoin="miter">
	<path stroke='black'  d='M53.9,246.8 L62.9,246.8 M615.0,246.8 L606.0,246.8  '/>	<g transform="translate(45.6,250.7)" stroke="none" fill="black" font-family="Arial" font-size="12.00"  text-anchor="end">
		<text><tspan font-family="Arial" > 2</tspan></text>
	</g>
</g>
<g fill="none" color="black" stroke="currentColor" stroke-width="1.00" stroke-linecap="butt" stroke-linejoin="miter">
	<path stroke='black'  d='M53.9,194.2 L62.9,194.2 M615.0,194.2 L606.0,194.2  '/>	<g transform="translate(45.6,198.1)" stroke="none" fill="black" font-family="Arial" font-size="12.00"  text-anchor="end">
		<text><tspan font-family="Arial" > 2.2</tspan></text>
	</g>
</g>
<g fill="none" color="black" stroke="currentColor" stroke-width="1.00" stroke-linecap="butt" stroke-linejoin="miter">
	<path stroke='black'  d='M53.9,141.6 L62.9,141.6 M615.0,141.6 L606.0,141.6  '/>	<g transform="translate(45.6,145.5)" stroke="none" fill="black" font-family="Arial" font-size="12.00"  text-anchor="end">
		<text><tspan font-family="Arial" > 2.4</tspan></text>
	</g>
</g>
<g fill="none" color="black" stroke="currentColor" stroke-width="1.00" stroke-linecap="butt" stroke-linejoin="miter">
	<path stroke='black'  d='M53.9,88.9 L62.9,88.9 M615.0,88.9 L606.0,88.9  '/>	<g transform="translate(45.6,92.8)" stroke="none" fill="black" font-family="Arial" font-size="12.00"  text-anchor="end">
		<text><tspan font-family="Arial" > 2.6</tspan></text>
	</g>
</g>
<g fill="none" color="black" stroke="currentColor" stroke-width="1.00" stroke-linecap="butt" stroke-linejoin="miter">
	<path stroke='black'  d='M53.9,36.3 L62.9,36.3 M615.0,36.3 L606.0,36.3  '/>	<g transform="translate(45.6,40.2)" stroke="none" fill="black" font-family="Arial" font-size="12.00"  text-anchor="end">
		<text><tspan font-family="Arial" > 2.8</tspan></text>
	</g>
</g>
<g fill="none" color="black" stroke="currentColor" stroke-width="1.00" stroke-linecap="butt" stroke-linejoin="miter">
	<path stroke='black'  d='M53.9,446.0 L53.9,437.0 M53.9,18.1 L53.9,27.1  '/>	<g transform="translate(53.9,467.9)" stroke="none" fill="black" font-family="Arial" font-size="12.00"  text-anchor="middle">
		<text><tspan font-family="Arial" > 0</tspan></text>
	</g>
</g>
<g fill="none" color="black" stroke="currentColor" stroke-width="1.00" stroke-linecap="butt" stroke-linejoin="miter">
	<path stroke='black'  d='M110.6,446.0 L110.6,437.0 M110.6,18.1 L110.6,27.1  '/>	<g transform="translate(110.6,467.9)" stroke="none" fill="black" font-family="Arial" font-size="12.00"  text-anchor="middle">
		<text><tspan font-family="Arial" > 10</tspan></text>
	</g>
</g>
<g fill="none" color="black" stroke="currentColor" stroke-width="1.00" stroke-linecap="butt" stroke-linejoin="miter">
	<path stroke='black'  d='M167.3,446.0 L167.3,437.0 M167.3,18.1 L167.3,27.1  '/>	<g transform="translate(167.3,467.9)" stroke="none" fill="black" font-family="Arial" font-size="12.00"  text-anchor="middle">
		<text><tspan font-family="Arial" > 20</tspan></text>
	</g>
</g>
<g fill="none" color="black" stroke="currentColor" stroke-width="1.00" stroke-linecap="butt" stroke-linejoin="miter">
	<path stroke='black'  d='M223.9,446.0 L223.9,437.0 M223.9,18.1 L223.9,27.1  '/>	<g transform="translate(223.9,467.9)" stroke="none" fill="black" font-family="Arial" font-size="12.00"  text-anchor="middle">
		<text><tspan font-family="Arial" > 30</tspan></text>
	</g>
</g>
<g fill="none" color="black" stroke="currentColor" stroke-width="1.00" stroke-linecap="butt" stroke-linejoin="miter">
	<path stroke='black'  d='M280.6,446.0 L280.6,437.0 M280.6,18.1 L280.6,27.1  '/>	<g transform="translate(280.6,467.9)" stroke="none" fill="black" font-family="Arial" font-size="12.00"  text-anchor="middle">
		<text><tspan font-family="Arial" > 40</tspan></text>
	</g>
</g>
<g fill="none" color="black" stroke="currentColor" stroke-width="1.00" stroke-linecap="butt" stroke-linejoin="miter">
	<path stroke='black'  d='M337.3,446.0 L337.3,437.0 M337.3,18.1 L337.3,27.1  '/>	<g transform="translate(337.3,467.9)" stroke="none" fill="black" font-family="Arial" font-size="12.00"  text-anchor="middle">
		<text><tspan font-family="Arial" > 50</tspan></text>
	</g>
</g>
<g fill="none" color="black" stroke="currentColor" stroke-width="1.00" stroke-linecap="butt" stroke-linejoin="miter">
	<path stroke='black'  d='M394.0,446.0 L394.0,437.0 M394.0,18.1 L394.0,27.1  '/>	<g transform="translate(394.0,467.9)" stroke="none" fill="black" font-family="Arial" font-size="12.00"  text-anchor="middle">
		<text><tspan font-family="Arial" > 60</tspan></text>
	</g>
</g>
<g fill="none" color="black" stroke="currentColor" stroke-width="1.00" stroke-linecap="butt" stroke-linejoin="miter">
	<path stroke='black'  d='M450.6,446.0 L450.6,437.0 M450.6,18.1 L450.6,27.1  '/>	<g transform="translate(450.6,467.9)" stroke="none" fill="black" font-family="Arial" font-size="12.00"  text-anchor="middle">
		<text><tspan font-family="Arial" > 70</tspan></text>
	</g>
</g>
<g fill="none" color="black" stroke="currentColor" stroke-width="1.00" stroke-linecap="butt" stroke-linejoin="miter">
	<path stroke='black'  d='M507.3,446.0 L507.3,437.0 M507.3,18.1 L507.3,27.1  '/>	<g transform="translate(507.3,467.9)" stroke="none" fill="black" font-family="Arial" font-size="12.00"  text-anchor="middle">
		<text><tspan font-family="Arial" > 80</tspan></text>
	</g>
</g>
<g fill="none" color="black" stroke="currentColor" stroke-width="1.00" stroke-linecap="butt" stroke-linejoin="miter">
	<path stroke='black'  d='M564.0,446.0 L564.0,437.0 M564.0,18.1 L564.0,27.1  '/>	<g transform="translate(564.0,467.9)" stroke="none" fill="black" font-family="Arial" font-size="12.00"  text-anchor="middle">
		<text><tspan font-family="Arial" > 90</tspan></text>
	</g>
</g>
<g fill="none" color="black" stroke="currentColor" stroke-width="1.00" stroke-linecap="butt" stroke-linejoin="miter">
</g>
<g fill="none" color="black" stroke="currentColor" stroke-width="1.00" stroke-linecap="butt" stroke-linejoin="miter">
	<path stroke='black'  d='M53.9,18.1 L53.9,446.0 L615.0,446.0 L615.0,18.1 L53.9,18.1 Z  '/></g>
<g fill="none" color="black" stroke="currentColor" stroke-width="1.00" stroke-linecap="butt" stroke-linejoin="miter">
</g>
	<g id="gnuplot_plot_1" ><title>pages+cached+noadtech</title>
<g fill="none" color="black" stroke="currentColor" stroke-width="1.00" stroke-linecap="butt" stroke-linejoin="miter">
	<g transform="translate(275.6,485.9)" stroke="none" fill="black" font-family="Arial" font-size="12.00"  text-anchor="end">
		<text><tspan font-family="Arial" >pages+cached+noadtech</tspan></text>
	</g>
</g>
<g fill="none" color="black" stroke="currentColor" stroke-width="1.00" stroke-linecap="butt" stroke-linejoin="miter">
	<path stroke='rgb(148,   0, 211)'  d='M283.9,482.0 L326.1,482.0 M53.9,266.2 L59.6,329.4 L65.2,335.4 L70.9,204.2 L76.6,409.6 L82.2,305.4
		L87.9,306.2 L93.6,398.3 L99.2,343.6 L104.9,402.3 L110.6,396.5 L116.2,315.2 L121.9,334.6 L127.6,426.2
		L133.2,412.0 L138.9,327.3 L144.6,410.4 L150.3,402.5 L155.9,328.3 L161.6,378.6 L167.3,310.7 L172.9,268.6
		L178.6,424.1 L184.3,339.1 L189.9,381.2 L195.6,245.5 L201.3,409.6 L206.9,308.3 L212.6,403.8 L218.3,356.2
		L223.9,215.5 L229.6,429.4 L235.3,269.7 L240.9,425.4 L246.6,320.7 L252.3,220.2 L257.9,391.5 L263.6,347.0
		L269.3,260.2 L274.9,397.5 L280.6,381.5 L286.3,322.8 L291.9,423.6 L297.6,323.6 L303.3,407.5 L308.9,421.5
		L314.6,340.2 L320.3,193.1 L325.9,406.5 L331.6,418.3 L337.3,254.7 L343.0,409.4 L348.6,353.1 L354.3,288.9
		L360.0,418.8 L365.6,402.5 L371.3,359.4 L377.0,387.0 L382.6,271.2 L388.3,407.5 L394.0,298.6 L399.6,398.6
		L405.3,401.2 L411.0,282.0 L416.6,407.8 L422.3,419.4 L428.0,304.1 L433.6,367.5 L439.3,316.8 L445.0,276.5
		L450.6,337.8 L456.3,373.8 L462.0,191.8 L467.6,319.9 L473.3,295.4 L479.0,308.3 L484.6,229.7 L490.3,332.0
		L496.0,418.0 L501.6,434.1 L507.3,304.9 L513.0,398.6 L518.6,394.4 L524.3,257.8 L530.0,350.2 L535.7,387.8
		L541.3,323.1 L547.0,418.6 L552.7,384.6 L558.3,330.2 L564.0,350.4 L569.7,417.0 L575.3,318.3 L581.0,416.2
		L586.7,430.4 L592.3,208.9 L598.0,391.2 L603.7,369.1 L609.3,320.7 L615.0,162.9  '/></g>
	</g>
	<g id="gnuplot_plot_2" ><title>pages+cached+noexternal</title>
<g fill="none" color="black" stroke="currentColor" stroke-width="1.00" stroke-linecap="butt" stroke-linejoin="miter">
	<g transform="translate(525.3,485.9)" stroke="none" fill="black" font-family="Arial" font-size="12.00"  text-anchor="end">
		<text><tspan font-family="Arial" >pages+cached+noexternal</tspan></text>
	</g>
</g>
<g fill="none" color="black" stroke="currentColor" stroke-width="1.00" stroke-linecap="butt" stroke-linejoin="miter">
	<path stroke='rgb(  0, 158, 115)'  d='M533.6,482.0 L575.8,482.0 M53.9,200.0 L59.6,411.5 L65.2,207.1 L70.9,437.8 L76.6,409.9 L82.2,322.0
		L87.9,292.3 L93.6,286.2 L99.2,389.4 L104.9,237.3 L110.6,363.3 L116.2,428.3 L121.9,304.4 L127.6,408.3
		L133.2,348.3 L138.9,308.1 L144.6,402.5 L150.3,192.3 L155.9,248.4 L161.6,300.7 L167.3,149.7 L172.9,322.3
		L178.6,253.1 L184.3,218.4 L189.9,413.3 L195.6,327.0 L201.3,339.4 L206.9,220.2 L212.6,345.2 L218.3,294.7
		L223.9,193.6 L229.6,391.7 L235.3,218.9 L240.9,343.1 L246.6,268.9 L252.3,388.3 L257.9,305.2 L263.6,344.6
		L269.3,216.5 L274.9,317.8 L280.6,259.1 L286.3,354.4 L291.9,219.9 L297.6,296.8 L303.3,422.0 L308.9,224.2
		L314.6,228.6 L320.3,313.6 L325.9,26.3 L331.6,334.6 L337.3,388.8 L343.0,252.0 L348.6,399.9 L354.3,414.4
		L360.0,329.6 L365.6,387.5 L371.3,326.5 L377.0,292.6 L382.6,345.7 L388.3,251.8 L394.0,263.6 L399.6,327.0
		L405.3,351.5 L411.0,287.8 L416.6,311.8 L422.3,405.4 L428.0,390.2 L433.6,138.7 L439.3,311.2 L445.0,371.5
		L450.6,354.1 L456.3,255.7 L462.0,422.0 L467.6,397.5 L473.3,287.0 L479.0,207.8 L484.6,302.6 L490.3,167.6
		L496.0,406.2 L501.6,202.3 L507.3,182.3 L513.0,394.1 L518.6,287.0 L524.3,234.9 L530.0,170.2 L535.7,221.8
		L541.3,73.9 L547.0,247.8 L552.7,201.5 L558.3,327.5 L564.0,406.2 L569.7,259.7 L575.3,294.7 L581.0,361.2
		L586.7,421.2 L592.3,347.5 L598.0,334.1 L603.7,147.3 L609.3,408.3 L615.0,393.6  '/></g>
	</g>
<g fill="none" color="#FFFFFF" stroke="rgb(  0, 158, 115)" stroke-width="2.00" stroke-linecap="butt" stroke-linejoin="miter">
</g>
<g fill="none" color="black" stroke="currentColor" stroke-width="2.00" stroke-linecap="butt" stroke-linejoin="miter">
</g>
<g fill="none" color="black" stroke="black" stroke-width="1.00" stroke-linecap="butt" stroke-linejoin="miter">
</g>
<g fill="none" color="black" stroke="currentColor" stroke-width="1.00" stroke-linecap="butt" stroke-linejoin="miter">
	<path stroke='black'  d='M53.9,18.1 L53.9,446.0 L615.0,446.0 L615.0,18.1 L53.9,18.1 Z  '/></g>
<g fill="none" color="black" stroke="currentColor" stroke-width="1.00" stroke-linecap="butt" stroke-linejoin="miter">
</g>
</g>
</svg>
